www/img/mcc-icons/people.svg

<svg width="33" height="43" viewBox="0 0 33 43" xmlns="http://www.w3.org/2000/svg"><g class="nc-icon-wrapper" fill="#444444"><title>people</title><g stroke="#444444" stroke-width="1" fill="none" fill-rule="evenodd"><path d="M16 24c-5.5 0-10-4.5-10-10v-4C6 4.5 10.5 0 16 0s10 4.5 10 10v4c0 5.5-4.5 10-10 10z" transform="translate(-146 -2406) translate(146 2406) translate(.5 .5)"></path><path d="M24 30H8c-4.4 0-8 3.6-8 8v4h32v-4c0-4.4-3.6-8-8-8z" transform="translate(-146 -2406) translate(146 2406) translate(.5 .5)"></path></g></g></svg>

<?xml version="1.0" encoding="UTF-8" standalone="no"?>
<svg width="33px" height="43px" viewBox="0 0 33 43" version="1.1" xmlns="http://www.w3.org/2000/svg" xmlns:xlink="http://www.w3.org/1999/xlink">
    <!-- Generator: Sketch 3.7.2 (28276) - http://www.bohemiancoding.com/sketch -->
    <title>people</title>
    <desc>Created with Sketch.</desc>
    <defs></defs>
    <g id="Page-1" stroke="none" stroke-width="1" fill="none" fill-rule="evenodd">
        <g id="-Transaction-icons" transform="translate(-146.000000, -2406.000000)" stroke="#9B9BAB">
            <g id="people" transform="translate(146.000000, 2406.000000)">
                <g id="Group" transform="translate(0.500000, 0.500000)">
                    <path d="M16,24 L16,24 C10.5,24 6,19.5 6,14 L6,10 C6,4.5 10.5,0 16,0 L16,0 C21.5,0 26,4.5 26,10 L26,14 C26,19.5 21.5,24 16,24 L16,24 Z" id="Shape"></path>
                    <path d="M24,30 L8,30 C3.6,30 0,33.6 0,38 L0,42 L32,42 L32,38 C32,33.6 28.4,30 24,30 L24,30 Z" id="Shape"></path>
                </g>
            </g>
        </g>
    </g>
</svg>
